public/svg/user_stories_6.svg

<svg width="145" height="63" viewBox="0 0 145 63" fill="none" xmlns="http://www.w3.org/2000/svg">
<path d="M20.7943 41.3273C20.7943 39.4258 21.2609 37.6264 22.1826 36.0894L22.2495 36.004L22.3226 35.8808L22.4317 35.6941L22.8754 35.0973C22.7045 35.17 22.5379 35.2523 22.3763 35.3438L22.1447 35.4811C21.9405 35.6026 21.687 35.6026 21.4845 35.4811L21.2556 35.3446C19.7476 34.4573 17.8259 34.4573 16.2906 35.3605C15.6066 35.7188 15.045 36.2346 14.6445 36.8702L14.552 36.9847C14.5261 37.0161 14.5053 37.0515 14.4904 37.0894L14.398 37.2171C13.692 38.4275 13.3125 39.8492 13.3125 41.2797C13.3125 45.889 17.1173 49.6427 21.7706 49.6427H21.885H21.9784C22.8551 49.6128 23.6686 49.4798 24.4115 49.243C22.1122 47.2183 20.7521 44.3538 20.7952 41.3246L20.7943 41.3273ZM22.0946 41.3361C22.0532 44.3115 23.5664 47.1215 26.0718 48.8935C26.4768 49.1796 26.4283 49.7967 25.9838 50.0168C24.813 50.5961 23.4837 50.9033 21.9977 50.9535H21.7662C16.3928 50.9535 12 46.6179 12 41.2806C12 39.5992 12.4507 37.9284 13.2941 36.5049L13.3574 36.4239C13.4243 36.2971 13.4833 36.2074 13.5722 36.1114C14.0943 35.3068 14.8047 34.6536 15.6515 34.2152C16.5842 33.6713 17.6426 33.3801 18.7222 33.3704C19.8018 33.3606 20.8653 33.6327 21.8076 34.1597C22.8202 33.6068 23.9649 33.3417 25.1175 33.393C25.769 33.422 25.9767 34.2909 25.4107 34.6166C24.651 35.0524 24.0224 35.6554 23.5418 36.3596C23.5057 36.4293 23.4666 36.4975 23.4247 36.5639C23.3825 36.6343 23.3657 36.6625 23.3569 36.6801L23.2627 36.8104C22.4845 38.1264 22.0866 39.6767 22.0866 41.3369L22.0946 41.3361Z" fill="#1B2738"/>
<path d="M40.8054 41.2805C40.8054 39.9301 40.4418 38.5225 39.8221 37.3834C39.8001 37.3429 39.7824 37.2997 39.7692 37.2557L39.7375 37.2152C39.5852 36.9438 39.4084 36.6869 39.2094 36.4476C37.6671 34.6729 35.0393 34.2028 33.0014 35.3912L32.7699 35.5286C32.6701 35.5883 32.556 35.6198 32.4398 35.6198C32.3235 35.6198 32.2094 35.5883 32.1096 35.5286L31.8781 35.3912C31.092 34.9247 30.1615 34.7072 29.1491 34.7486C29.0611 34.7486 28.9572 34.7556 28.8428 34.7715L28.4775 34.8305L28.1253 34.8991L27.8665 34.9722L27.3982 35.1764L26.9686 35.3939C26.2644 35.8094 25.6921 36.3358 25.296 36.9635L25.2036 37.0779C25.1777 37.1094 25.1569 37.1447 25.142 37.1827L25.0566 37.2998C24.3744 38.5491 24.0144 39.9487 24.009 41.3721C24.0054 42.7137 24.3274 44.0363 24.9474 45.2261C25.6517 46.5316 26.6772 47.6426 27.8921 48.3776C27.9789 48.4124 28.0631 48.4536 28.1438 48.5009L28.3357 48.6206L28.7794 48.8424C29.9044 49.3706 31.1319 49.6444 32.3746 49.6444H32.5964C37.1741 49.5123 40.786 45.8256 40.786 41.2814L40.8054 41.2805ZM42.1056 41.2805C42.1056 46.5404 37.9329 50.8055 32.6246 50.9534H32.3931C30.9507 50.9532 29.5262 50.6333 28.2222 50.0168C28.2116 50.0115 27.87 49.8337 27.87 49.8407L27.8348 49.8301L27.6808 49.7553C27.6235 49.7165 27.5651 49.6796 27.5056 49.6444C27.4779 49.6274 27.4487 49.613 27.4184 49.6012L27.2908 49.5432C25.8444 48.684 24.6358 47.3864 23.8092 45.8511C23.0924 44.4694 22.7181 42.9357 22.7176 41.3791C22.7223 39.7132 23.1484 38.0754 23.9562 36.6184L24.0266 36.5268C24.0837 36.4114 24.1566 36.3044 24.2432 36.209C24.7537 35.4238 25.458 34.7715 26.3321 34.2618C26.5063 34.1639 26.6846 34.0734 26.8665 33.9907C27.0091 33.9255 27.1306 33.8762 27.3841 33.7653C27.525 33.7098 27.6746 33.6667 27.8507 33.6271C27.9537 33.6042 28.062 33.5831 28.2345 33.5496L28.2547 33.5461L28.6685 33.4801C28.8446 33.4572 28.9889 33.4449 29.1201 33.4466C30.3015 33.3956 31.4441 33.6526 32.4318 34.2125C35.0041 32.7749 38.256 33.3797 40.1786 35.6007C40.4075 35.8648 40.6038 36.1536 40.8018 36.4811C40.9163 36.6025 40.9806 36.7628 40.9806 36.9318C40.983 36.8326 40.9599 36.7344 40.9136 36.6466C40.9674 36.7155 41.0025 36.797 41.0158 36.8834C41.7155 38.2439 42.0838 39.7506 42.0906 41.2805H42.1056ZM34.1969 36.7161C34.0233 36.7161 33.8568 36.6471 33.734 36.5244C33.6113 36.4017 33.5423 36.2352 33.5423 36.0616C33.5423 35.888 33.6113 35.7215 33.734 35.5988C33.8568 35.476 34.0233 35.4071 34.1969 35.4071C36.2216 35.4071 38.0755 36.4881 39.1072 38.2091C39.5914 39.0595 39.8405 39.9979 39.8405 41.0059C39.8405 42.0138 39.5905 42.9531 39.1072 43.8026C38.9285 44.1169 38.5315 44.2252 38.2199 44.0456C37.9083 43.866 37.8 43.4663 37.9778 43.1521C38.3512 42.4981 38.5449 41.7571 38.5394 41.0041C38.5453 40.2566 38.3543 39.5206 37.9857 38.8702C37.1934 37.5498 35.7612 36.7135 34.196 36.7135L34.1969 36.7161ZM29.3085 29.0046C29.8493 29.8407 30.4519 30.6352 31.1114 31.3814L31.9036 32.2318C32.166 32.4783 32.1809 32.892 31.9353 33.1561C31.6897 33.4202 31.2786 33.4352 31.0163 33.1887L30.7636 32.9378L30.1272 32.2476C29.4278 31.4492 28.787 30.6013 28.2098 29.7106C27.1887 28.126 26.407 26.5001 25.921 24.8248C24.9509 26.3689 24.1956 27.8557 23.6349 29.2722C23.2458 30.2528 22.9808 31.1261 22.8162 31.8779L22.6692 32.7529C22.6637 32.8384 22.6414 32.9219 22.6036 32.9988C22.5658 33.0756 22.5132 33.1442 22.4489 33.2007C22.3845 33.2572 22.3097 33.3005 22.2286 33.328C22.1475 33.3556 22.0618 33.3668 21.9763 33.3612C21.6181 33.3366 21.3478 33.0241 21.3716 32.6631C21.3857 32.4607 21.4358 32.0997 21.5476 31.5962C21.7272 30.774 22.0142 29.8329 22.4279 28.7854C23.1498 26.9631 24.171 25.0396 25.5337 23.0387C25.3612 21.8828 25.34 20.712 25.4897 19.5315C25.8682 16.5754 26.8278 14.2611 28.1993 12.5207C29.3217 11.128 30.445 10.3578 31.2311 10.0453C31.37 9.99057 31.5236 9.98528 31.666 10.0303C31.916 10.1183 32.2443 10.2944 32.5674 10.6007C34.2576 12.2452 33.6167 15.3078 29.5092 20.0571C28.5391 21.1786 27.6799 22.2798 26.9237 23.3556C27.2934 25.2923 28.1262 27.1805 29.3006 29.0054L29.3085 29.0046ZM28.5285 19.1979C32.2399 14.9063 32.7276 12.5779 31.6642 11.5435C31.5955 11.4766 31.5277 11.4229 31.467 11.3816C31.2995 11.4746 31.1367 11.576 30.9793 11.6853C30.3895 12.0902 29.7944 12.6378 29.2363 13.3464C28.0039 14.8984 27.1455 16.9892 26.7978 19.7111C26.7248 20.2832 26.6962 20.86 26.7124 21.4365C27.2714 20.6988 27.8762 19.9523 28.5285 19.1979ZM61.5526 48.6672C60.2515 48.6672 59.0877 48.382 58.0621 47.8107C57.0366 47.2394 56.2311 46.4374 55.6474 45.4057C55.0638 44.374 54.7715 43.2102 54.7715 41.9179C54.7715 40.6256 55.0638 39.4662 55.6474 38.4424C56.2136 37.4354 57.05 36.6066 58.0621 36.0497C59.0886 35.4793 60.2515 35.1932 61.5526 35.1932C62.6864 35.1932 63.7006 35.4159 64.5923 35.8604C65.4711 36.2927 66.2056 36.9707 66.7068 37.8121L65.3811 38.7188C64.9471 38.0639 64.3969 37.5726 63.7296 37.2452C63.0623 36.9177 62.337 36.754 61.5526 36.754C60.6019 36.754 59.7479 36.9679 58.9882 37.3966C58.2325 37.8213 57.6156 38.4553 57.2118 39.2224C56.7866 40.0111 56.5735 40.9099 56.5735 41.9161C56.5735 42.9399 56.7866 43.8528 57.2118 44.6231C57.6191 45.3844 58.2355 46.0135 58.9882 46.4365C59.7471 46.8652 60.6019 47.0792 61.5526 47.0792C62.3449 47.0792 63.0623 46.9207 63.7296 46.6003C64.3969 46.2798 64.9471 45.7948 65.3811 45.1389L66.7068 46.0457C66.2031 46.8895 65.4639 47.5678 64.58 47.9973C63.6794 48.4419 62.6697 48.6646 61.5517 48.6646L61.5526 48.6672ZM76.0637 35.1932C77.7151 35.1932 79.0286 35.6756 80.004 36.6413C80.9794 37.607 81.4679 39.0128 81.4679 40.8597V48.5414H79.6914V41.0279C79.6914 39.6511 79.3499 38.6017 78.6659 37.8799C77.9819 37.158 77.0065 36.7971 75.7388 36.7971C74.3303 36.7971 73.1991 37.2214 72.3734 38.0691C71.5477 38.9169 71.1348 40.0877 71.1348 41.5904V48.5414H69.361V29.8541H71.1374V37.6008C71.6216 36.8288 72.288 36.2328 73.1393 35.8138C73.9905 35.3948 74.9659 35.1844 76.0663 35.1844L76.0637 35.1932ZM97.1789 42.4716H86.1732C86.2736 43.8484 86.7894 44.9602 87.7578 45.8168C88.7261 46.6733 89.9092 47.0888 91.3609 47.0888C92.1778 47.0888 92.9278 46.9418 93.6127 46.6487C94.2951 46.356 94.9025 45.9127 95.3892 45.352L96.3901 46.5105C95.8065 47.2147 95.0767 47.7429 94.2008 48.1214C93.3249 48.5 92.3521 48.676 91.3107 48.676C89.9594 48.676 88.7631 48.3855 87.7208 47.8072C86.6993 47.2487 85.8543 46.4156 85.2814 45.4022C84.6978 44.3783 84.4055 43.219 84.4055 41.9267C84.4055 40.6344 84.6846 39.475 85.2436 38.4512C85.8026 37.4274 86.5693 36.629 87.5456 36.0585C88.5219 35.4881 89.6179 35.202 90.8353 35.202C92.0528 35.202 93.1453 35.4872 94.1127 36.0585C95.0802 36.6298 95.8382 37.423 96.3892 38.4389C96.9403 39.4548 97.215 40.6177 97.215 41.9267L97.1903 42.4813L97.1789 42.4716ZM90.823 36.7293C89.5554 36.7293 88.4919 37.1369 87.6328 37.9512C86.7736 38.7655 86.2859 39.8263 86.1688 41.1379H95.5001C95.383 39.828 94.8953 38.7664 94.0362 37.9512C93.177 37.136 92.1056 36.7293 90.8213 36.7293H90.823ZM101.915 37.8878C102.332 37.0075 102.954 36.3261 103.779 35.8631C104.603 35.4 105.625 35.1835 106.844 35.1835V36.9212L106.419 36.8948C105.034 36.8948 103.95 37.3226 103.166 38.1801C102.382 39.0375 101.99 40.2365 101.99 41.7893V48.5387H100.213V35.2944H101.915V37.8887V37.8878ZM111.123 37.8878C111.54 37.0075 112.162 36.3261 112.987 35.8631C113.812 35.4 114.834 35.1835 116.052 35.1835V36.9212L115.627 36.8948C114.242 36.8948 113.158 37.3226 112.374 38.1801C111.59 39.0375 111.198 40.2365 111.198 41.7893V48.5387H109.421V35.2944H111.123V37.8887V37.8878ZM129.962 42.4716H118.958C119.058 43.8484 119.574 44.9602 120.542 45.8168C121.511 46.6733 122.694 47.0888 124.146 47.0888C124.962 47.0888 125.712 46.9418 126.397 46.6487C127.08 46.356 127.687 45.9127 128.174 45.352L129.175 46.5105C128.591 47.2147 127.861 47.7429 126.985 48.1214C126.109 48.5 125.137 48.676 124.095 48.676C122.744 48.676 121.548 48.3855 120.505 47.8072C119.484 47.2487 118.639 46.4156 118.066 45.4022C117.482 44.3783 117.19 43.219 117.19 41.9267C117.19 40.6344 117.469 39.475 118.028 38.4512C118.587 37.4274 119.354 36.629 120.33 36.0585C121.307 35.4881 122.402 35.202 123.62 35.202C124.837 35.202 125.93 35.4872 126.897 36.0585C127.865 36.6298 128.623 37.423 129.174 38.4389C129.725 39.4548 130 40.6177 130 41.9267L129.975 42.4813L129.962 42.4716ZM123.606 36.7293C122.338 36.7293 121.275 37.1369 120.416 37.9512C119.556 38.7655 119.069 39.8263 118.952 41.1379H128.28C128.163 39.828 127.676 38.7664 126.816 37.9512C125.957 37.136 124.886 36.7293 123.601 36.7293H123.606Z" fill="#1B2738"/>
</svg>

<svg xmlns="http://www.w3.org/2000/svg" width="145" height="63" fill="#1b2738"  xmlns:v="https://vecta.io/nano"><path d="M20.794 41.327c0-1.901.467-3.701 1.388-5.238l.067-.085.073-.123.109-.187.444-.597a4.93 4.93 0 0 0-.499.247l-.232.137c-.204.122-.458.122-.66 0l-.229-.136c-1.508-.887-3.43-.887-4.965.016-.684.358-1.246.874-1.646 1.51l-.093.114c-.026.031-.047.067-.062.105l-.092.128c-.706 1.21-1.085 2.632-1.085 4.063 0 4.609 3.805 8.363 8.458 8.363h.208c.877-.03 1.69-.163 2.433-.4-2.299-2.025-3.659-4.889-3.616-7.918l-.001.003zm1.3.009c-.041 2.975 1.472 5.785 3.977 7.557.405.286.357.903-.088 1.123-1.171.579-2.5.886-3.986.937h-.231c-5.373 0-9.766-4.336-9.766-9.673 0-1.681.451-3.352 1.294-4.776l.063-.081c.067-.127.126-.217.215-.312.522-.805 1.233-1.458 2.079-1.896.933-.544 1.991-.835 3.071-.845s2.143.262 3.085.789a6.32 6.32 0 0 1 3.31-.767.66.66 0 0 1 .293 1.224c-.76.436-1.388 1.039-1.869 1.743a2.77 2.77 0 0 1-.117.204l-.068.116-.094.13c-.778 1.316-1.176 2.866-1.176 4.526l.008-.001z"/><path d="M40.805 41.281c0-1.35-.364-2.758-.983-3.897-.022-.041-.04-.084-.053-.128l-.032-.04c-.152-.271-.329-.528-.528-.768-1.542-1.775-4.17-2.245-6.208-1.056l-.231.137c-.1.06-.214.091-.33.091s-.23-.032-.33-.091l-.232-.137c-.786-.466-1.717-.684-2.729-.643-.088 0-.192.007-.306.023l-.365.059-.352.069-.259.073-.468.204-.43.218c-.704.415-1.276.942-1.673 1.57l-.092.114c-.026.032-.047.067-.062.105l-.085.117c-.682 1.249-1.042 2.649-1.048 4.072a8.29 8.29 0 0 0 .938 3.854c.704 1.305 1.73 2.416 2.945 3.151.087.035.171.076.252.123l.192.12.444.222a8.46 8.46 0 0 0 3.595.802h.222c4.578-.132 8.19-3.819 8.19-8.363h.019zm1.3 0c0 5.26-4.173 9.525-9.481 9.673h-.232a9.76 9.76 0 0 1-4.171-.937c-.011-.005-.352-.183-.352-.176l-.035-.011-.154-.075a3.4 3.4 0 0 0-.175-.111c-.028-.017-.057-.031-.087-.043l-.128-.058c-1.446-.859-2.655-2.157-3.482-3.692a9.72 9.72 0 0 1-1.092-4.472c.005-1.666.431-3.304 1.239-4.761l.07-.092a1.39 1.39 0 0 1 .217-.318c.51-.785 1.215-1.437 2.089-1.947a7.03 7.03 0 0 1 .534-.271c.143-.065.264-.114.518-.225.141-.056.291-.099.467-.138a14.91 14.91 0 0 1 .384-.078l.02-.003.414-.066c.176-.023.32-.035.452-.034 1.181-.051 2.324.206 3.312.766 2.572-1.438 5.824-.833 7.747 1.388.229.264.425.553.623.88.114.121.179.282.179.451a.58.58 0 0 0-.067-.285.51.51 0 0 1 .102.237 9.71 9.71 0 0 1 1.075 4.397h.015zm-7.909-4.564c-.174 0-.34-.069-.463-.192s-.192-.289-.192-.463.069-.34.192-.463.289-.192.463-.192c2.025 0 3.879 1.081 4.91 2.802.484.85.733 1.789.733 2.797s-.25 1.947-.733 2.797c-.179.314-.576.423-.887.243a.66.66 0 0 1-.242-.894 4.27 4.27 0 0 0 .562-2.148 4.26 4.26 0 0 0-.554-2.134 4.43 4.43 0 0 0-3.79-2.157l.001.003zm-4.888-7.711a19.95 19.95 0 0 0 1.803 2.377l.792.85c.262.246.277.66.032.924s-.657.279-.919.033l-.253-.251-.636-.69a22.04 22.04 0 0 1-1.917-2.537c-1.021-1.585-1.803-3.21-2.289-4.886-.97 1.544-1.725 3.031-2.286 4.447-.389.981-.654 1.854-.819 2.606l-.147.875a.65.65 0 0 1-.22.448.65.65 0 0 1-.473.16c-.358-.025-.628-.337-.605-.698.014-.202.064-.563.176-1.067.18-.822.467-1.763.88-2.811.722-1.822 1.743-3.746 3.106-5.747-.172-1.156-.194-2.327-.044-3.507.379-2.956 1.338-5.27 2.71-7.011 1.122-1.393 2.246-2.163 3.032-2.475a.65.65 0 0 1 .435-.015c.25.088.578.264.901.57 1.69 1.645 1.049 4.707-3.058 9.456-.97 1.122-1.829 2.223-2.585 3.299.37 1.937 1.203 3.825 2.377 5.65h.008zm-.78-9.807c3.711-4.292 4.199-6.62 3.136-7.654a1.47 1.47 0 0 0-.197-.162 5.74 5.74 0 0 0-.488.304c-.59.405-1.185.953-1.743 1.661-1.232 1.552-2.091 3.643-2.439 6.365-.073.572-.102 1.149-.085 1.725a44.72 44.72 0 0 1 1.816-2.239zm33.024 29.469c-1.301 0-2.465-.285-3.49-.857s-1.831-1.373-2.415-2.405-.876-2.196-.876-3.488.292-2.452.876-3.476a6.2 6.2 0 0 1 2.415-2.393c1.026-.57 2.189-.857 3.49-.857 1.134 0 2.148.223 3.04.667a5.06 5.06 0 0 1 2.115 1.952l-1.326.907c-.434-.655-.984-1.146-1.652-1.474s-1.393-.491-2.177-.491c-.951 0-1.805.214-2.564.643a4.5 4.5 0 0 0-1.776 1.826c-.425.789-.638 1.688-.638 2.694 0 1.024.213 1.937.638 2.707.407.761 1.024 1.39 1.776 1.813.759.429 1.614.643 2.564.643.792 0 1.51-.159 2.177-.479a4.07 4.07 0 0 0 1.652-1.461l1.326.907c-.504.844-1.243 1.522-2.127 1.952-.901.445-1.91.667-3.028.667l.001.003zm14.511-13.474c1.651 0 2.965.482 3.94 1.448s1.464 2.371 1.464 4.218v7.682h-1.776v-7.514c0-1.377-.341-2.426-1.026-3.148s-1.659-1.083-2.927-1.083c-1.409 0-2.54.424-3.365 1.272s-1.239 2.019-1.239 3.521v6.951h-1.774V29.854h1.776v7.747a4.82 4.82 0 0 1 2.002-1.787c.851-.419 1.827-.629 2.927-.629l-.003.009zm21.115 7.278H86.173c.1 1.377.616 2.489 1.585 3.345s2.151 1.272 3.603 1.272c.817 0 1.567-.147 2.252-.44a4.92 4.92 0 0 0 1.776-1.297l1.001 1.159c-.584.704-1.313 1.232-2.189 1.611s-1.849.555-2.89.555c-1.351 0-2.548-.291-3.59-.869a6.24 6.24 0 0 1-2.439-2.405c-.584-1.024-.876-2.183-.876-3.476s.279-2.452.838-3.475a6.09 6.09 0 0 1 2.302-2.393c.976-.57 2.072-.857 3.29-.857s2.31.285 3.277.857 1.725 1.364 2.276 2.38.826 2.179.826 3.488l-.025.555-.011-.01zm-6.356-5.742c-1.268 0-2.331.408-3.19 1.222s-1.347 1.875-1.464 3.187H95.5c-.117-1.31-.605-2.372-1.464-3.187s-1.931-1.222-3.215-1.222h.002zm11.092 1.158a4.44 4.44 0 0 1 1.864-2.025c.824-.463 1.846-.68 3.065-.68v1.738l-.425-.026c-1.385 0-2.469.428-3.253 1.285s-1.176 2.056-1.176 3.609v6.749h-1.777V35.294h1.702v2.593zm9.208 0a4.44 4.44 0 0 1 1.864-2.025c.825-.463 1.847-.68 3.065-.68v1.738l-.425-.026c-1.385 0-2.469.428-3.253 1.285s-1.176 2.056-1.176 3.609v6.749h-1.777V35.294h1.702v2.593zm18.839 4.584h-11.004c.1 1.377.616 2.489 1.584 3.345s2.152 1.272 3.604 1.272c.816 0 1.566-.147 2.251-.44a4.92 4.92 0 0 0 1.777-1.297l1.001 1.159c-.584.704-1.314 1.232-2.19 1.611s-1.848.555-2.89.555c-1.351 0-2.547-.291-3.59-.869-1.021-.559-1.866-1.392-2.439-2.405-.584-1.024-.876-2.183-.876-3.476s.279-2.452.838-3.475 1.326-1.822 2.302-2.393 2.072-.857 3.29-.857 2.31.285 3.277.857 1.726 1.364 2.277 2.38.826 2.179.826 3.488l-.025.555-.013-.01zm-6.356-5.742c-1.268 0-2.331.408-3.19 1.222s-1.347 1.875-1.464 3.187h9.328c-.117-1.31-.604-2.372-1.464-3.187s-1.93-1.222-3.215-1.222h.005z"/></svg>
